X:77
T: Jetzt mu ich unter die Fremde (Band 1), S. 219
N: P0852
O: Lothringen
S: PINCK, Louis: Verklingende Weisen, Bd 1, Metz 1928]
R: Liebe, Abschied, Heimkehr, Tod , Trauer]
M: 3/8
L: 1/8
K: F
C | FCF | AFA | c2A | A3 |
A2G | BBG | FDF | CEG | c2
A | AcA | GFG | F2

@@@ Tune index: 7627
